dist/assets/images/features/03.svg

<svg width="40" height="40" viewBox="0 0 40 40" fill="none" xmlns="http://www.w3.org/2000/svg">
<g clip-path="url(#clip0_27_487)">
<path d="M36.8986 20.7346V2.5198C36.8986 1.86997 36.3718 1.34314 35.722 1.34314H4.19674C3.54691 1.34314 3.02008 1.86997 3.02008 2.5198V22.1867C2.45246 22.2694 1.89755 22.4898 1.40664 22.8542C-0.140899 23.9516 -0.506918 26.4073 0.789368 27.9218L6.08928 34.347C9.36996 38.1866 12.855 38.657 18.0359 38.657C22.4819 38.657 24.4696 38.6766 28.3443 37.7937L32.1173 36.8913C32.7291 37.7456 33.7003 38.299 34.7922 38.299H36.6508C38.4975 38.299 40 36.7163 40 34.7708V24.2523C40.0001 22.3947 38.63 20.8688 36.8986 20.7346ZM31.6098 23.1551L30.042 22.3588C27.4642 21.0577 24.4839 21.0095 21.8655 22.2269C21.1511 22.5079 19.5929 23.4506 18.7847 23.4191H13.3445C11.54 23.4191 10.0718 24.8872 10.0718 26.6918V27.5499C10.0617 27.5392 10.0511 27.5291 10.0411 27.5182L6.15619 23.3013C5.9211 23.0462 5.65697 22.8326 5.37348 22.6613V10.9874H15.0027V15.3007C15.0027 15.9505 15.5295 16.4773 16.1794 16.4773H23.6042C24.254 16.4773 24.7808 15.9505 24.7808 15.3007V10.9874H34.5454V20.7346C33.1706 20.8408 32.0242 21.8243 31.6098 23.1551ZM17.356 10.9874H22.4274V14.124H17.356V10.9874ZM34.5453 8.63404H24.7808V3.69646H34.5454V8.63404H34.5453ZM22.4275 3.69646V8.63412H17.356V3.69646H22.4275ZM15.0026 3.69646V8.63412H5.3734V3.69646H15.0026ZM27.7982 35.5046C24.2188 36.3244 22.0631 36.2912 18.0781 36.2912C13.2146 36.2912 10.8646 36.2126 7.90479 32.8494L2.60488 26.4243C1.683 25.2238 3.35276 23.8067 4.4254 24.8957L8.31034 29.1127C9.3371 30.1961 10.6291 30.7923 12.2216 30.8274H22.9926C23.6425 30.8274 24.1693 30.3006 24.1693 29.6507C24.1693 29.0009 23.6425 28.4741 22.9926 28.4741H12.425V26.6916C12.425 26.1847 12.8374 25.7722 13.3444 25.7722H18.7847C20.0103 25.86 21.7793 24.8366 22.8575 24.3607C24.8186 23.4489 27.0508 23.485 28.9789 24.4581L31.4432 25.7098V34.6326L27.7982 35.5046ZM37.6467 34.7707C37.6467 35.4186 37.2 35.9456 36.6509 35.9456H34.7922C34.2431 35.9456 33.7965 35.4186 33.7965 34.7707V24.2523C33.7965 23.6044 34.2432 23.0773 34.7922 23.0773H36.6509C37.2 23.0773 37.6467 23.6044 37.6467 24.2523V34.7707Z" fill="#3A3A3A"/>
</g>
<defs>
<clipPath id="clip0_27_487">
<rect width="40" height="40" fill="white"/>
</clipPath>
</defs>
</svg>

<svg width="40" height="40" viewBox="0 0 40 40" fill="none" xmlns="http://www.w3.org/2000/svg"><g clip-path="url(#a)"><path d="M36.899 20.735V2.52c0-.65-.527-1.177-1.177-1.177H4.197c-.65 0-1.177.527-1.177 1.177v19.667a3.562 3.562 0 0 0-1.613.667c-1.548 1.098-1.914 3.553-.618 5.068l5.3 6.425c3.281 3.84 6.766 4.31 11.947 4.31 4.446 0 6.434.02 10.308-.863l3.773-.903c.612.855 1.583 1.408 2.675 1.408h1.859c1.846 0 3.349-1.583 3.349-3.528V24.252c0-1.857-1.37-3.383-3.101-3.517Zm-5.29 2.42-1.567-.796a9.322 9.322 0 0 0-8.177-.132c-.714.28-2.272 1.224-3.08 1.192h-5.44a3.276 3.276 0 0 0-3.273 3.273v.858l-.03-.032-3.886-4.217a3.585 3.585 0 0 0-.783-.64V10.987h9.63v4.314c0 .65.527 1.176 1.176 1.176h7.425c.65 0 1.177-.527 1.177-1.176v-4.314h9.764v9.748c-1.374.106-2.52 1.09-2.935 2.42ZM17.357 10.987h5.071v3.137h-5.071v-3.137Zm17.19-2.353H24.78V3.696h9.764v4.938ZM22.426 3.696v4.938h-5.071V3.696h5.071Zm-7.424 0v4.938h-9.63V3.696h9.63Zm12.795 31.809c-3.58.82-5.735.786-9.72.786-4.863 0-7.213-.078-10.173-3.442l-5.3-6.425c-.922-1.2.748-2.617 1.82-1.528l3.885 4.217c1.027 1.083 2.32 1.68 3.912 1.714h10.77a1.177 1.177 0 1 0 0-2.353H12.426v-1.782a.92.92 0 0 1 .92-.92h5.44c1.225.088 2.994-.935 4.073-1.411a6.98 6.98 0 0 1 6.12.097l2.465 1.252v8.923l-3.645.872Zm9.849-.734c0 .648-.447 1.175-.996 1.175h-1.859c-.549 0-.995-.527-.995-1.175V24.252c0-.648.446-1.175.995-1.175h1.859c.549 0 .996.527.996 1.175v10.519Z" fill="#3A3A3A"/></g><defs><clipPath id="a"><path fill="#fff" d="M0 0h40v40H0z"/></clipPath></defs></svg>
